<?xml version='1.0' encoding='utf-8'?>
<map version="1.11" tiledversion="1.11.2" orientation="orthogonal" renderorder="right-down" width="16" height="9" tilewidth="32" tileheight="32" infinite="0" nextlayerid="2" nextobjectid="1"><tileset firstgid="1" source="hollow_reliquary_terrain.tsx" /><layer id="1" name="terrain" width="16" height="9"><data encoding="csv">
0,0,0,0,0,0,0,0,0,0,0,0,0,0,0,0,
0,0,0,0,0,0,0,0,0,0,0,0,0,0,0,0,
0,0,0,0,0,0,0,0,0,0,0,0,0,0,0,0,
0,0,0,0,0,0,0,0,0,0,0,0,0,0,0,0,
0,0,0,0,0,0,0,0,0,0,4,18,18,18,15,0,
0,4,18,18,15,0,0,0,0,0,0,0,0,0,0,0,
7,0,0,0,0,0,0,0,0,0,0,0,0,0,0,7,
13,32,32,32,32,32,32,32,32,32,32,32,32,32,32,26,
6,22,22,22,22,22,22,22,22,22,22,22,22,22,22,17
</data></layer></map>